assets/slack.svg

<svg width="65" height="64" viewBox="0 0 65 64" fill="none" xmlns="http://www.w3.org/2000/svg">
<path fill-rule="evenodd" clip-rule="evenodd" d="M13.6717 40.2192C13.6724 41.0976 13.4967 41.9674 13.1546 42.779C12.8125 43.5907 12.3108 44.328 11.6781 44.949C11.0454 45.57 10.2942 46.0624 9.46751 46.3979C8.6408 46.7335 7.75481 46.9057 6.86024 46.9047C5.96613 46.905 5.08072 46.7323 4.25464 46.3964C3.42855 46.0605 2.678 45.5681 2.04589 44.9471C1.41379 44.3262 0.912528 43.5891 0.570778 42.7778C0.229028 41.9666 0.0534902 41.0971 0.0542022 40.2192C0.0534899 39.341 0.229117 38.4714 0.571037 37.6599C0.912956 36.8485 1.41446 36.1112 2.04685 35.4903C2.67924 34.8693 3.43012 34.3769 4.25651 34.0412C5.08291 33.7055 5.96861 33.533 6.86295 33.5337H13.6744V40.2192H13.6717ZM17.0761 40.2192C17.0754 39.341 17.251 38.4714 17.5929 37.6599C17.9348 36.8485 18.4363 36.1112 19.0687 35.4903C19.7011 34.8693 20.452 34.3769 21.2784 34.0412C22.1048 33.7055 22.9905 33.533 23.8848 33.5337C24.7792 33.533 25.6649 33.7055 26.4913 34.0412C27.3177 34.3769 28.0685 34.8693 28.7009 35.4903C29.3333 36.1112 29.8348 36.8485 30.1767 37.6599C30.5187 38.4714 30.6943 39.341 30.6936 40.2192V56.9355C30.6943 57.8137 30.5187 58.6833 30.1767 59.4948C29.8348 60.3062 29.3333 61.0435 28.7009 61.6644C28.0685 62.2854 27.3177 62.7778 26.4913 63.1135C25.6649 63.4492 24.7792 63.6217 23.8848 63.621C22.9905 63.6217 22.1048 63.4492 21.2784 63.1135C20.452 62.7778 19.7011 62.2854 19.0687 61.6644C18.4363 61.0435 17.9348 60.3062 17.5929 59.4948C17.251 58.6833 17.0754 57.8137 17.0761 56.9355V40.2192Z" fill="#E01E5A"/>
<path fill-rule="evenodd" clip-rule="evenodd" d="M23.8848 13.3736C22.9902 13.3743 22.1043 13.2018 21.2777 12.8659C20.4512 12.53 19.7002 12.0373 19.0677 11.4161C18.4353 10.7949 17.9339 10.0573 17.5921 9.24554C17.2503 8.4338 17.075 7.56384 17.076 6.68547C17.0753 5.80733 17.251 4.93766 17.5929 4.12623C17.9348 3.31479 18.4363 2.57752 19.0687 1.95657C19.7011 1.33563 20.452 0.843208 21.2784 0.50748C22.1048 0.171751 22.9905 -0.000696324 23.8848 3.11479e-06C24.7791 -0.000696324 25.6648 0.171751 26.4912 0.50748C27.3176 0.843208 28.0685 1.33563 28.7009 1.95657C29.3333 2.57752 29.8348 3.31479 30.1767 4.12623C30.5186 4.93766 30.6943 5.80733 30.6935 6.68547V13.3763H23.8875L23.8848 13.3736ZM23.8848 16.7669C24.7791 16.7662 25.6648 16.9386 26.4912 17.2743C27.3176 17.6101 28.0685 18.1025 28.7009 18.7234C29.3333 19.3444 29.8348 20.0817 30.1767 20.8931C30.5186 21.7045 30.6943 22.5742 30.6935 23.4523C30.6943 24.3305 30.5186 25.2002 30.1767 26.0116C29.8348 26.823 29.3333 27.5603 28.7009 28.1812C28.0685 28.8022 27.3176 29.2946 26.4912 29.6303C25.6648 29.9661 24.7791 30.1385 23.8848 30.1378H6.80875C5.91464 30.1385 5.02916 29.9662 4.20294 29.6306C3.37672 29.295 2.62597 28.8028 1.99361 28.1822C1.36125 27.5615 0.859694 26.8246 0.517615 26.0134C0.175536 25.2023 -0.000354061 24.3329 2.15823e-06 23.455C-0.000710178 22.5769 0.174917 21.7072 0.516837 20.8958C0.858756 20.0843 1.36026 19.347 1.99265 18.7261C2.62504 18.1052 3.37592 17.6127 4.20231 17.277C5.02871 16.9413 5.91441 16.7688 6.80875 16.7695H23.8875L23.8848 16.7669Z" fill="#36C5F0"/>
<path fill-rule="evenodd" clip-rule="evenodd" d="M51.1738 23.4523C51.1731 22.574 51.3488 21.7041 51.6909 20.8925C52.0329 20.0809 52.5347 19.3435 53.1674 18.7225C53.8 18.1015 54.5512 17.6092 55.378 17.2736C56.2047 16.938 57.0907 16.7658 57.9852 16.7669C58.8796 16.7662 59.7653 16.9386 60.5917 17.2743C61.4181 17.6101 62.1689 18.1025 62.8013 18.7234C63.4337 19.3444 63.9352 20.0817 64.2771 20.8931C64.6191 21.7045 64.7947 22.5742 64.794 23.4523C64.7947 24.3305 64.6191 25.2002 64.2771 26.0116C63.9352 26.823 63.4337 27.5603 62.8013 28.1812C62.1689 28.8022 61.4181 29.2946 60.5917 29.6303C59.7653 29.9661 58.8796 30.1385 57.9852 30.1378H51.1738V23.4523ZM47.7694 23.4523C47.7701 24.3305 47.5945 25.2002 47.2526 26.0116C46.9106 26.823 46.4091 27.5603 45.7767 28.1812C45.1444 28.8022 44.3935 29.2946 43.5671 29.6303C42.7407 29.9661 41.855 30.1385 40.9606 30.1378C40.0661 30.1389 39.1801 29.9667 38.3534 29.6311C37.5267 29.2955 36.7755 28.8032 36.1428 28.1822C35.5101 27.5612 35.0084 26.8238 34.6663 26.0122C34.3242 25.2006 34.1485 24.3307 34.1492 23.4523V6.68548C34.1485 5.80711 34.3242 4.93722 34.6663 4.12561C35.0084 3.31401 35.5101 2.57661 36.1428 1.95563C36.7755 1.33465 37.5267 0.842289 38.3534 0.506717C39.1801 0.171145 40.0661 -0.00104452 40.9606 4.76684e-06C41.855 -0.000694672 42.7407 0.171753 43.5671 0.507481C44.3935 0.84321 45.1444 1.33563 45.7767 1.95657C46.4091 2.57752 46.9106 3.3148 47.2526 4.12623C47.5945 4.93766 47.7701 5.80733 47.7694 6.68548V23.455V23.4523Z" fill="#2EB67D"/>
<path fill-rule="evenodd" clip-rule="evenodd" d="M40.9606 50.2474C41.8549 50.2467 42.7406 50.4191 43.567 50.7549C44.3934 51.0906 45.1443 51.583 45.7767 52.204C46.4091 52.8249 46.9106 53.5622 47.2525 54.3736C47.5944 55.1851 47.7701 56.0547 47.7694 56.9329C47.7704 57.8112 47.5951 58.6812 47.2533 59.4929C46.9115 60.3047 46.4101 61.0423 45.7777 61.6635C45.1452 62.2847 44.3942 62.7774 43.5677 63.1133C42.7411 63.4492 41.8552 63.6217 40.9606 63.621C40.066 63.6217 39.1801 63.4492 38.3535 63.1133C37.527 62.7774 36.776 62.2847 36.1435 61.6635C35.5111 61.0423 35.0097 60.3047 34.6679 59.4929C34.3261 58.6812 34.1508 57.8112 34.1518 56.9329V50.2474H40.9606ZM40.9606 46.9047C40.0663 46.9054 39.1806 46.7329 38.3542 46.3972C37.5278 46.0615 36.7769 45.569 36.1445 44.9481C35.5121 44.3271 35.0106 43.5899 34.6687 42.7784C34.3268 41.967 34.1511 41.0973 34.1518 40.2192C34.1511 39.341 34.3268 38.4714 34.6687 37.6599C35.0106 36.8485 35.5121 36.1112 36.1445 35.4903C36.7769 34.8693 37.5278 34.3769 38.3542 34.0412C39.1806 33.7055 40.0663 33.533 40.9606 33.5337H58.0366C58.931 33.533 59.8167 33.7055 60.6431 34.0412C61.4695 34.3769 62.2204 34.8693 62.8527 35.4903C63.4851 36.1112 63.9866 36.8485 64.3286 37.6599C64.6705 38.4714 64.8461 39.341 64.8454 40.2192C64.8461 41.0973 64.6705 41.967 64.3286 42.7784C63.9866 43.5899 63.4851 44.3271 62.8527 44.9481C62.2204 45.569 61.4695 46.0615 60.6431 46.3972C59.8167 46.7329 58.931 46.9054 58.0366 46.9047H40.9606Z" fill="#ECB22E"/>
</svg>

<svg width="65" height="64" fill="none" xmlns="http://www.w3.org/2000/svg"><path fill-rule="evenodd" clip-rule="evenodd" d="M13.672 40.22c0 .878-.175 1.747-.517 2.559a6.673 6.673 0 0 1-1.477 2.17 6.812 6.812 0 0 1-2.21 1.449 6.913 6.913 0 0 1-2.608.507 6.91 6.91 0 0 1-2.605-.509 6.812 6.812 0 0 1-2.21-1.449 6.673 6.673 0 0 1-1.474-2.17 6.575 6.575 0 0 1-.517-2.558c0-.878.175-1.748.517-2.56a6.673 6.673 0 0 1 1.476-2.169 6.812 6.812 0 0 1 2.21-1.449 6.913 6.913 0 0 1 2.606-.507h6.811v6.685h-.002Zm3.404 0c0-.879.175-1.749.517-2.56a6.673 6.673 0 0 1 1.476-2.17 6.812 6.812 0 0 1 2.21-1.449 6.913 6.913 0 0 1 2.606-.507 6.918 6.918 0 0 1 2.606.507 6.812 6.812 0 0 1 2.21 1.45 6.673 6.673 0 0 1 1.476 2.169c.342.811.517 1.681.517 2.56v16.715a6.59 6.59 0 0 1-.517 2.56 6.673 6.673 0 0 1-1.476 2.17 6.812 6.812 0 0 1-2.21 1.449 6.913 6.913 0 0 1-2.606.507c-.895 0-1.78-.172-2.607-.508a6.812 6.812 0 0 1-2.21-1.449 6.673 6.673 0 0 1-1.475-2.17 6.576 6.576 0 0 1-.517-2.559V40.22Z" fill="#E01E5A"/><path fill-rule="evenodd" clip-rule="evenodd" d="M23.885 13.374c-.895 0-1.78-.172-2.607-.508a6.815 6.815 0 0 1-2.21-1.45 6.674 6.674 0 0 1-1.476-2.17 6.576 6.576 0 0 1-.516-2.56c0-.879.175-1.748.517-2.56a6.673 6.673 0 0 1 1.476-2.17 6.813 6.813 0 0 1 2.21-1.449A6.912 6.912 0 0 1 23.884 0c.894 0 1.78.172 2.606.507a6.813 6.813 0 0 1 2.21 1.45 6.673 6.673 0 0 1 1.476 2.17c.342.81.517 1.68.517 2.558v6.691h-6.806l-.003-.002Zm0 3.393c.894 0 1.78.172 2.606.507a6.815 6.815 0 0 1 2.21 1.45 6.674 6.674 0 0 1 1.476 2.17 6.576 6.576 0 0 1 0 5.118 6.673 6.673 0 0 1-1.476 2.17 6.812 6.812 0 0 1-2.21 1.448 6.911 6.911 0 0 1-2.606.508H6.809c-.894 0-1.78-.172-2.606-.507a6.815 6.815 0 0 1-2.21-1.449 6.673 6.673 0 0 1-1.475-2.169 6.575 6.575 0 0 1-.001-5.117 6.672 6.672 0 0 1 1.476-2.17 6.813 6.813 0 0 1 2.21-1.449 6.913 6.913 0 0 1 2.606-.508h17.078l-.002-.002Z" fill="#36C5F0"/><path fill-rule="evenodd" clip-rule="evenodd" d="M51.174 23.452c0-.878.175-1.748.517-2.56a6.672 6.672 0 0 1 1.476-2.17 6.812 6.812 0 0 1 2.211-1.448 6.91 6.91 0 0 1 2.607-.507c.895 0 1.78.172 2.607.507a6.815 6.815 0 0 1 2.21 1.45 6.674 6.674 0 0 1 1.475 2.17 6.593 6.593 0 0 1 0 5.118 6.673 6.673 0 0 1-1.476 2.17 6.812 6.812 0 0 1-2.21 1.448 6.911 6.911 0 0 1-2.606.508h-6.811v-6.686Zm-3.405 0a6.592 6.592 0 0 1-.516 2.56 6.674 6.674 0 0 1-1.476 2.17 6.81 6.81 0 0 1-2.21 1.448 6.911 6.911 0 0 1-2.606.508 6.91 6.91 0 0 1-2.608-.507 6.814 6.814 0 0 1-2.21-1.449 6.674 6.674 0 0 1-1.477-2.17 6.575 6.575 0 0 1-.517-2.56V6.685c0-.878.175-1.748.517-2.56a6.673 6.673 0 0 1 1.477-2.17 6.814 6.814 0 0 1 2.21-1.448A6.912 6.912 0 0 1 40.961 0c.894 0 1.78.172 2.606.507a6.812 6.812 0 0 1 2.21 1.45 6.675 6.675 0 0 1 1.476 2.17c.341.81.517 1.68.516 2.558v16.77-.003Z" fill="#2EB67D"/><path fill-rule="evenodd" clip-rule="evenodd" d="M40.96 50.247c.895 0 1.78.172 2.607.508a6.812 6.812 0 0 1 2.21 1.449 6.673 6.673 0 0 1 1.475 2.17c.342.811.518 1.68.517 2.559a6.576 6.576 0 0 1-.516 2.56 6.674 6.674 0 0 1-1.475 2.17 6.815 6.815 0 0 1-2.21 1.45 6.912 6.912 0 0 1-2.607.508c-.895 0-1.78-.172-2.608-.508a6.815 6.815 0 0 1-2.21-1.45 6.674 6.674 0 0 1-1.475-2.17 6.576 6.576 0 0 1-.516-2.56v-6.686h6.809Zm0-3.342c-.894 0-1.78-.172-2.606-.508a6.814 6.814 0 0 1-2.21-1.449 6.673 6.673 0 0 1-1.475-2.17 6.576 6.576 0 0 1-.517-2.559c0-.878.175-1.748.517-2.56a6.673 6.673 0 0 1 1.476-2.169 6.812 6.812 0 0 1 2.21-1.449 6.913 6.913 0 0 1 2.606-.507h17.076a6.918 6.918 0 0 1 2.606.507 6.81 6.81 0 0 1 2.21 1.45 6.674 6.674 0 0 1 1.476 2.169c.342.811.517 1.681.516 2.56a6.564 6.564 0 0 1-.516 2.558 6.675 6.675 0 0 1-1.476 2.17 6.812 6.812 0 0 1-2.21 1.45 6.913 6.913 0 0 1-2.606.507H40.96Z" fill="#ECB22E"/></svg>
